X:1
T:Vaghe faville
T:Vaghe faville
T:Giovanni Ghizzolo
C:Giovanni Ghizzolo
%%score [ 1 2 ] { 3 | 4 }
L:1/8
Q:1/4=120
M:6/2
K:F
V:1 treble nm="Soprano" snm="S"
V:2 bass nm="Bass" snm="B"
V:3 treble nm="MusicXML Part"
V:4 bass 
V:1
"^Source: Madrigali et Arie---Libro secondo---Venetia---A.Raverij---1609.\nEditor : André Vierendeels (07/12/09)\nContinuo: André Vierendeels" d4 B4 G4 A8 A4 | %1
w: Va- ghe fa- vil- le|
w: Quan- ti di- let- ti|
w: Chi puo mi- rar- vi|
w: Qual per l'es- ta- te|
w: Et al- ti gi- ra|
"^ARIA" G4 A6 G2 G8 G4 | F4 G4 A4 B2 A2 B2 c2 d4 | _e4 c8 d12 :: d4 A4 B4 A8 A4 | B4 c6 c2 d8 d4 | %6
w: da le pu- pil- le|vi- bra lo scher- * * * *|zo'el gio- co.|Ne mai di vi- so|mi- ra s'in vi- so|
w: ve- ne- r'e- lec- ti|s'ha mai per sua _ _ _ _|fa- mi- glia.|Tut- ti d'in- tor- no|stan not- t'e gior- no|
w: e non lo- dar- vi|fon- te del mio _ _ _ _|mar- ti- ro.|Be- gli'oc- chi chia- ri|a me piu ca- ri|
w: a- pi'o- do- ra- te|spie- ga- no'al sol _ _ _ _|le piu- me.|Tal mil- le'a- mo- ri|va- ghi d'ar- do- ri|
w: al- tri re- gi- ra|la lu- ce per- * * * *|e- gri- ne.-|Ques- t'l bel guar- do|on- d'io tut- to'ar- do|
 D4 E4 F4 G2 F2 G2 A2 B4 | B4 A8 G12 :| G4 A4 B4 c2 B2 c2 d2 _e4 | G4 A8 G12 |] %10
w: del vo- sto dol- * * * *|ce fo- co,|dal vo- stro dol- * * * *|ce fo- co.|
w: a co- si- ca- * * * *|re ci- glia,|a co- si ca- * * * *|re ci- glia.|
w: che gli'oc- chi'on- de'io- * * * *|vi mi- ro,|che gli'oc- chi'on- de'io _ _ _ _|vi mi- ro.|
w: vo- lan al vo- * * * *|stro lu- me,|vo- lan al vo- * * * *|stro lu- me.|
w: sol- le- va'e quei _ _ _ _|l'in- cli- na|sol- le- va'e quei _ _ _ _|l'in- cli- na.|
V:2
 D,4 G,4 _E,4 D,8 D,4 | =B,,4 C,4 D,4 G,,8 G,,4 | D,4 E,4 F,4 G,12 | _E,4 F,8 B,,12 :: %4
w: Va- ghe fa- vil- la|da le pu- pil- le|vi- bra lo scher-|zo'el gio- co.|
w: Quan- ti di- let- ti|ve- ne- r'e- lec- ti|s'ha mai per sua|fa- mi- glia.|
w: Chi puo mi- rar- vi|e non lo- dar- vi|fon- te del mio|mar- ti- ro.|
w: Qual per l'es- ta- te|a- pi'o- do- ra- te|spie- ga- no'al sol|le piu- me.|
w: Et al- ti gi- ra|al- tri re- gi- ra|la lu- e per-|e- gri- ne.|
 B,4 F,4 G,4 D,8 D,4 | G,4 _E,4 F,4 B,,8 B,,4 | D,4 C,4 A,,4 G,,12 | G,,4 D,8 G,,12 :| %8
w: Ne mai di vi- so|mi- ra s'in vi- so|del vo- stro dol-|ce fo- co,|
w: Tut- ti d'in- tor- no|stan not- t'e gior- no|a co- si ca-|re ci- glia,|
w: Be- gli'oc- chi ch'ia- ri|a me piu ca- ri|che gli'oc- chi'on- de'io|vi- mi- ro,|
w: Tal mil- le'a- mo- ri|va- ghi d'ar- do- ri|vo- lan al vo-|stro lu- me,|
w: Ques- t'il bel guar- do|on- d'io tut- to'ar- do|sol- le- va'e quei|l'in- cli- na,|
 G,4 F,4 D,4 C,12 | _E,4 D,8 G,,12 |] %10
w: dal vo- stro dol-|ce fo- co.|
w: a co- si ca-|re ci- glia.|
w: che gli'oc- chi'on- de'io|vi mi- ro.|
w: vo- lan al vo-|stro lu- me.|
w: sol- le- va'e quei|l'in- cli- na.|
V:3
 [FAd]4 [GBd]4 [GB]4 [^FA]12 | [DG]4 [EG]4 ^F4 [DGB]12 | [FAd]12 [DGB]12 | [Gc]4 [FAc]8 [FBd]12 :: %4
 [FB]8 [GB]4 [FAd]12 | [DGB]4 [GB]4 [FAc]4 [DFB]12 | [DA]4 [Ec]4 [FA]4 [DG]12 | %7
 [DGB]4 G4 ^F4 [DGB]12 :| G4 [FA]4 [DB]4 [Gc]8 [_Ec]4 | [G_e]4 B2 c2 [^Fd]4 [DG=B]12 |] %10
V:4
 D,4 G,4 _E,4 D,8 D,4 | =B,,4 C,4 D,4 G,,8 G,,4 | D,4 E,4 F,4 G,12 | _E,4 F,8 B,,12 :: %4
 B,4 F,4 G,4 D,8 D,4 | G,4 _E,4 F,4 B,,8 B,,4 | D,4 C,4 A,,4 G,,12 | %7
 G,,4 D,8"^Notes:  Original keys: Ut 1st, Fa 4rth\n             Dotted brackets indicate black notes" G,,12 :| %8
 G,4 F,4 D,4 C,12 | _E,4 D,8 G,,12 |] %10

